material/.icons/material/flip-to-front.svg

<svg xmlns="http://www.w3.org/2000/svg" viewBox="0 0 24 24"><path d="M7 21h2v-2H7m4 2h2v-2h-2m8-4H9V5h10m0-2H9c-1.11 0-2 .89-2 2v10a2 2 0 002 2h10a2 2 0 002-2V5a2 2 0 00-2-2m-4 18h2v-2h-2M3 9h2V7H3m2 14v-2H3a2 2 0 002 2m-2-4h2v-2H3m0-2h2v-2H3v2z"/></svg>

<?xml version="1.0" encoding="UTF-8"?><!DOCTYPE svg PUBLIC "-//W3C//DTD SVG 1.1//EN" "http://www.w3.org/Graphics/SVG/1.1/DTD/svg11.dtd"><svg xmlns="http://www.w3.org/2000/svg" xmlns:xlink="http://www.w3.org/1999/xlink" version="1.1" id="mdi-flip-to-front" width="24" height="24" viewBox="0 0 24 24"><path d="M7,21H9V19H7M11,21H13V19H11M19,15H9V5H19M19,3H9C7.89,3 7,3.89 7,5V15A2,2 0 0,0 9,17H14L18,17H19A2,2 0 0,0 21,15V5C21,3.89 20.1,3 19,3M15,21H17V19H15M3,9H5V7H3M5,21V19H3A2,2 0 0,0 5,21M3,17H5V15H3M3,13H5V11H3V13Z" /></svg>
